src/assets/icons/linkedin.svg

<svg xmlns="http://www.w3.org/2000/svg" fill="#947f7d" width="24" height="24"  xmlns:v="https://vecta.io/nano"><path d="M19 3H5a2 2 0 0 0-2 2v14a2 2 0 0 0 2 2h14a2 2 0 0 0 2-2V5a2 2 0 0 0-2-2zM7.738 17h0a1.26 1.26 0 0 1-1.262-1.262V11.26c.001-.696.566-1.26 1.262-1.26h0A1.26 1.26 0 0 1 9 11.262v4.477A1.26 1.26 0 0 1 7.738 17zm-.044-8.283c-.77 0-1.286-.514-1.286-1.2s.514-1.2 1.37-1.2c.77 0 1.286.514 1.286 1.2s-.514 1.2-1.37 1.2zM16.78 17h0a1.22 1.22 0 0 1-1.221-1.221v-2.605c0-1.058-.65-1.174-.895-1.174s-1.058.035-1.058 1.174v2.605A1.22 1.22 0 0 1 12.384 17h-.08a1.22 1.22 0 0 1-1.221-1.221v-4.517A1.26 1.26 0 0 1 12.344 10h0a1.26 1.26 0 0 1 1.262 1.262S13.888 10 15.804 10c1.22 0 2.196.977 2.196 3.174v2.605A1.22 1.22 0 0 1 16.779 17z"/></svg>

<?xml version="1.0"?><svg fill="#947f7d" xmlns="http://www.w3.org/2000/svg" viewBox="0 0 24 24" width="24px" height="24px">    <path d="M19,3H5C3.895,3,3,3.895,3,5v14c0,1.105,0.895,2,2,2h14c1.105,0,2-0.895,2-2V5C21,3.895,20.105,3,19,3z M7.738,17L7.738,17 c-0.697,0-1.262-0.565-1.262-1.262v-4.477C6.477,10.565,7.042,10,7.738,10h0C8.435,10,9,10.565,9,11.262v4.477 C9,16.435,8.435,17,7.738,17z M7.694,8.717c-0.771,0-1.286-0.514-1.286-1.2s0.514-1.2,1.371-1.2c0.771,0,1.286,0.514,1.286,1.2 S8.551,8.717,7.694,8.717z M16.779,17L16.779,17c-0.674,0-1.221-0.547-1.221-1.221v-2.605c0-1.058-0.651-1.174-0.895-1.174 s-1.058,0.035-1.058,1.174v2.605c0,0.674-0.547,1.221-1.221,1.221h-0.081c-0.674,0-1.221-0.547-1.221-1.221v-4.517 c0-0.697,0.565-1.262,1.262-1.262h0c0.697,0,1.262,0.565,1.262,1.262c0,0,0.282-1.262,2.198-1.262C17.023,10,18,10.977,18,13.174 v2.605C18,16.453,17.453,17,16.779,17z"/></svg>
